packages/core/src/svgs/tokens/mono/SDN.svg

<svg width="24" height="24" viewBox="0 0 24 24" fill="none" xmlns="http://www.w3.org/2000/svg">
<path d="M18.9499 5.90552C8.9833 7.97218 8.41108 11.9889 9.37773 13.7389C8.79996 12.3611 9.78886 9.05551 18.3833 6.82774L18.9499 5.90552Z" fill="white"/>
<path d="M8.99981 9.28884C7.85536 11.0556 8.29425 12.2888 8.65536 12.6943C8.07759 8.31662 15.4609 5.91662 19.2275 5.27218L19.7776 4.17773C16.2887 4.58885 10.4221 7.08328 8.99981 9.28884Z" fill="white"/>
<path d="M7.16654 7.27222C5.21099 10.2833 7.85543 13.1333 9.42205 14.1777C6.99431 11.1667 6.51654 8.89999 8.70542 6.79999C10.8942 4.68889 14.6387 3.19444 17.9832 2.65L16.8665 2C14.4443 2.50001 9.11098 4.25555 7.16098 7.27222H7.16654Z" fill="white"/>
<path d="M18.367 3C17.2004 3.11667 14.0171 3.87779 10.6449 5.95555C7.32821 8.00555 7.31709 10.4167 7.73932 11.4166C7.70043 10.6833 8.26709 8.74999 10.8393 6.8611C13.4116 4.97222 17.5282 3.98889 19.2615 3.73334L18.3726 3H18.367Z" fill="white"/>
<path d="M5.05005 18.0944C15.0166 16.0277 15.589 12.011 14.6223 10.261C15.2001 11.6388 14.2111 14.9444 5.61671 17.172L5.05005 18.0944Z" fill="white"/>
<path d="M15.0002 14.7113C16.1446 12.9446 15.7058 11.7113 15.3446 11.3057C15.9224 15.6835 8.53907 18.0835 4.77242 18.7278L4.22241 19.8223C7.71129 19.4113 13.5779 16.9168 15.0002 14.7113Z" fill="white"/>
<path d="M16.8335 16.7279C18.789 13.7167 16.1445 10.8667 14.578 9.82227C17.0057 12.8334 17.4835 15.1001 15.2946 17.2001C13.1058 19.3111 9.36128 20.8056 6.01685 21.3501L7.1335 22C9.55574 21.5001 14.8891 19.7445 16.8391 16.7279H16.8335Z" fill="white"/>
<path d="M5.63346 20.9997C6.80012 20.883 9.98347 20.1219 13.3556 18.0442C16.6723 15.9942 16.6835 13.5831 16.2612 12.583C16.3 13.3163 15.7334 15.2497 13.1612 17.1386C10.589 19.0275 6.47234 20.0108 4.73901 20.2664L5.62791 20.9997H5.63346Z" fill="white"/>
</svg>

<svg xmlns="http://www.w3.org/2000/svg" width="24" height="24" fill="none" viewBox="0 0 24 24">
    <path fill="#fff" d="M18.95 5.906c-9.967 2.066-10.54 6.083-9.572 7.833-.578-1.378.41-4.683 9.005-6.911z"/>
    <path fill="#fff" d="M9 9.289c-1.145 1.767-.706 3-.345 3.405-.577-4.377 6.806-6.777 10.573-7.422l.55-1.094c-3.49.41-9.356 2.905-10.778 5.11"/>
    <path fill="#fff" d="M7.167 7.272c-1.956 3.011.688 5.861 2.255 6.906C6.994 11.167 6.517 8.9 8.705 6.8c2.19-2.111 5.934-3.606 9.278-4.15L16.866 2c-2.422.5-7.755 2.256-9.705 5.272z"/>
    <path fill="#fff" d="M18.367 3c-1.167.117-4.35.878-7.722 2.956-3.317 2.05-3.328 4.46-2.906 5.46-.039-.733.528-2.666 3.1-4.555s6.69-2.872 8.423-3.128L18.372 3zM5.05 18.094c9.967-2.066 10.539-6.083 9.572-7.833.578 1.378-.41 4.683-9.005 6.911z"/>
    <path fill="#fff" d="M15 14.711c1.145-1.766.706-3 .345-3.405.577 4.378-6.806 6.778-10.573 7.422l-.55 1.094c3.49-.41 9.356-2.905 10.778-5.11"/>
    <path fill="#fff" d="M16.834 16.728c1.955-3.011-.69-5.861-2.256-6.906 2.428 3.011 2.906 5.278.717 7.378-2.19 2.111-5.934 3.606-9.278 4.15l1.116.65c2.423-.5 7.756-2.256 9.706-5.272z"/>
    <path fill="#fff" d="M5.633 21c1.167-.117 4.35-.878 7.723-2.956 3.316-2.05 3.327-4.46 2.905-5.461.039.733-.528 2.667-3.1 4.556S6.472 20.01 4.74 20.266l.889.734z"/>
</svg>
